!!!COM: Palestrina, Giovanni Perluigi da
!!!OPR: Missa O virgo simul et mater
!!!OMD: Benedictus
!!!OTL: Hosanna
**kern	**kern	**kern	**kern	**kern
*Ibass	*Itenor	*Icalto	*Icalto	*Icant
!Bassus	!Tenor	!Altus 2	!Altus 1	!Cantus
*clefF4	*clefGv2	*clefG2	*clefG2	*clefG2
*k[b-]	*k[b-]	*k[b-]	*k[b-]	*k[b-]
*G:dor	*G:dor	*G:dor	*G:dor	*G:dor
*M4/2	*M4/2	*M4/2	*M4/2	*M4/2
=31	=31	=31	=31	=31
1r	0r	1g	0r	1r
1G	.	[1b-	.	1dd
=32	=32	=32	=32	=32
1.d	0r	2b-]	0r	1.ff
.	.	2a	.	.
.	.	2f	.	.
2c	.	[2g	.	2ee
=33	=33	=33	=33	=33
2A	0r	2g]	0r	2cc
2B-	.	2f	.	1dd
2G	.	1e	.	.
2A	.	.	.	2cc
=34	=34	=34	=34	=34
2.B-	2r	2d	1r	1b-
.	2d	2.f	.	.
4c	.	.	.	.
1d	[1f	.	2r	1a
.	.	4g	.	.
.	.	4a	2a	.
.	.	4f	.	.
=35	=35	=35	=35	=35
1c	2f]	1g	1.cc	2r
.	2e	.	.	2g
2A	2c	4f	.	2a
.	.	4e	.	.
[2B-	[2d	4d	2b-	2f
.	.	4c	.	.
=36	=36	=36	=36	=36
2B-]	2d]	2B-	2g	2b-
2F	2c	2f	1a	2a
1G	1B-	1d	.	2.dd
.	.	.	2g	.
.	.	.	.	4ee
=37	=37	=37	=37	=37
2D	2A	2r	1f	2ff
1d	2B-	2f	.	2dd
.	2G	2b-	1e	1ee
2c#	2A	2a	.	.
=38	=38	=38	=38	=38
1d	2B-	2f	2r	1dd
.	2.G	2.g	2d	.
1G	.	.	[1b-	2r
.	4A	4f	.	.
.	4B-	2d	.	2dd
.	4c	.	.	.
=39	=39	=39	=39	=39
0r	4d	2.f	2b-]	2dd
.	4e	.	.	.
.	1f	.	2a	2cc
.	.	4g	.	.
.	.	4a	2f	2ff
.	.	4b-	.	.
.	2c	2cc	[2g	[2ee
=40	=40	=40	=40	=40
0r	1d	1a	2g]	4ee]
.	.	.	.	4dd
.	.	.	2f	1dd
.	1A	2a	2e	.
.	.	2a	2e	2cc#
=41	=41	=41	=41	=41
1G	2r	1.b-	1g	2dd
.	2d	.	.	2b-
[1B-	2d	.	4f	[1dd
.	.	.	4e	.
.	2B-	2f	4d	.
.	.	.	4c	.
=42	=42	=42	=42	=42
2B-]	2d	2g	2B-	2dd]
2A	2e	1a	2c	2cc
2F	4f	.	4d	2a
.	4e	.	4c	.
[2G	4d	2g	4B-	[2b-
.	4c	.	4A	.
=43	=43	=43	=43	=43
2G]	4B-	1d	2G	2b-]
.	4c	.	.	.
2F	1d	.	2A	2a
1E-	.	2r	2B-	[1g
.	2c	2g	2G	.
=44	=44	=44	=44	=44
1D	2d	2b-	2r	2g]
.	2d	2.a	2A	2f#
1C	[1e-	.	2c	2r
.	.	4g	.	.
.	.	2cc	2G	[2g
=45	=45	=45	=45	=45
1G	2e-]	4b-	2.B-	2g]
.	.	4a	.	.
.	2d	4g	.	1b-
.	.	4f	4c	.
2G	2B-	2g	4d	.
.	.	.	4e	.
[2F	[2c	[2a	[2f	2a
=46	=46	=46	=46	=46
2F]	2c]	2a]	2f]	2dd
2G	2B-	1g	2d	2dd
1D	1A	.	1d	1dd
.	.	2f#	.	.
=47	=47	=47	=47	=47
0G	0G	0g	0d	0b
==	==	==	==	==
*-	*-	*-	*-	*-
!!!CDT: 1525/^1526/-1594/2/2
!!!OCY: Italia
!!!AGN: Mass (Parody)
!!!AST: renaissance, vocal
!!!ASW: Motet 1572 (Palestrina)
!!!PWK: Masses, Book 10
!!!RNB: Cadence finals: D
!!!YOR: Le Opere Complete, v. 27, p. 89
!!!YOO: Rome, Italy: Fratelli Scalera
!!!END: 1992//
!!!EED: John Miller
!!!YEC: Copyright 2000, John Miller
!!!YEN: United States of America
!!!YEM: Rights to all derivative electronic formats reserved.
!!!YEM: Refer to licensing agreement for further details.
!!!YEM: This file must be accompanied by the licensing agreement.
!!!YEM: A copy of the licensing agreement may be found at http://www.music-cog.ohio-state.edu/HumdrumDatabases/Palestrina/license.txt
!!!EMD: converted to Humdrum by Bret Aarden
